!!!ONB: MCCC : IJB0066_02 : Extracted Monophonic Melody
!!!COM: Bach, Johann Sebastian
!!!OPR: Cello Suite No.4
!!!OMV: 2
!!!SCT: BWV 1010
!!!ODT: 1717///
**kern
*thru
*Icello
*>A
*clefF4
*k[b-e-a-]
*E-:
*M2/2
*MM120
8B-
=1
8e-
16d
16c
16B-
16A-
16G
16A-
16B-
16A-
16G
16F
16E-
16D
16C
16BB-
=2
16C
16E-
16F
16G
16A-
16G
16F
16E-
16D
16E-
16F
16D
8BB-
8AA-
=3
16GG
16BB-
16C
16D
8E-
8d-
8AA-
8c
8F
8E-
=4
16FF
16AA-
16BB-
16C
8D
8c
8GG
8B-
8E-
8D
=5
16EE-
16GG
16AA-
16BB-
8C
8B-
8FF
8A-
8D
16B-
16A-
=6
16G
16F
16E-
16G
16F
16E-
16D
16F
4E-
16E-
16F
16D
16E-
=7
16F
16E-
16D
16C
16BB-
16C
16D
16E-
16F
16G
16A-
16F
16G
16F
16E-
16F
=8
16G
16F
16E-
16D
16C
16D
16E-
16F
16G
16A
16B-
16G
16A
16G
16F
16G
=9
16A
16G
16F
16E-
8D
8c
16GG
16BB-
16C
16D
8E-
8d
=10
16c
16B-
16A
16G
8F
8e-
16BB-
16D
16E-
16F
8G
8f
=11
16e-
16d
16c
16B-
8A
8g
16f
16e-
16d
16c
8B-
8A-
=12
16G
16F
16E-
16D
8C
8BB-
16AA
16E-
[8G
8G]
16F
16E-
=13
16D
16C
16BB-
16D
16C
16BB-
16AA
16C
16BB-
16D
16C
16BB-
16C
16E-
16D
16C
=14
16D
16E-
16F
16G
8A-
8BB-
8EE-
8A-
16G
16F
16E-
16D
=15
16C
16D
16E-
16F
8G
8B-
16A
16B-
16c
16B-
16A
16G
16F
16E-
=16
16D
16C
16BB-
16D
16C
16BB-
16AA
16C
4.BB-
*>A
*clefF4
*k[b-e-a-]
*E-:
*M2/2
*MM120
8B-
=1
8e-
16d
16c
16B-
16A-
16G
16A-
16B-
16A-
16G
16F
16E-
16D
16C
16BB-
=2
16C
16E-
16F
16G
16A-
16G
16F
16E-
16D
16E-
16F
16D
8BB-
8AA-
=3
16GG
16BB-
16C
16D
8E-
8d-
8AA-
8c
8F
8E-
=4
16FF
16AA-
16BB-
16C
8D
8c
8GG
8B-
8E-
8D
=5
16EE-
16GG
16AA-
16BB-
8C
8B-
8FF
8A-
8D
16B-
16A-
=6
16G
16F
16E-
16G
16F
16E-
16D
16F
4E-
16E-
16F
16D
16E-
=7
16F
16E-
16D
16C
16BB-
16C
16D
16E-
16F
16G
16A-
16F
16G
16F
16E-
16F
=8
16G
16F
16E-
16D
16C
16D
16E-
16F
16G
16A
16B-
16G
16A
16G
16F
16G
=9
16A
16G
16F
16E-
8D
8c
16GG
16BB-
16C
16D
8E-
8d
=10
16c
16B-
16A
16G
8F
8e-
16BB-
16D
16E-
16F
8G
8f
=11
16e-
16d
16c
16B-
8A
8g
16f
16e-
16d
16c
8B-
8A-
=12
16G
16F
16E-
16D
8C
8BB-
16AA
16E-
[8G
8G]
16F
16E-
=13
16D
16C
16BB-
16D
16C
16BB-
16AA
16C
16BB-
16D
16C
16BB-
16C
16E-
16D
16C
=14
16D
16E-
16F
16G
8A-
8BB-
8EE-
8A-
16G
16F
16E-
16D
=15
16C
16D
16E-
16F
8G
8B-
16A
16B-
16c
16B-
16A
16G
16F
16E-
=16
16D
16C
16BB-
16D
16C
16BB-
16AA
16C
4.BB-
*>B
8F
=17
8B-
16A
16G
16F
16E-
16D
16E-
16F
16E-
16D
16C
16BB-
16AA-
16GG
16FF
=18
16GG
16E-
16F
16G
16D
16A-
16G
16F
16G
16A-
16B-
16G
8E-
16D
16C
=19
16BB
16C
16D
16E-
8F
8A-
16d
16c
16B
16A
8G
8F
=20
16C
16D
16E-
16F
16G
16B
16c
16d
16e-
16d
16c
16B-
16A-
16G
16F
16E-
=21
16A-
16G
16F
16E-
16D
16C
16BB
16AA
16F
16E-
16D
16C
16BB
16AA
16GG
16FF
=22
8EE-
8c
8GG
8B
[4c
8c]
16c
16d
=23
16e-
16d
16e-
16d
16c
16B-
16c
16B-
16A
16B-
16A
16B-
16c
16d
16c
16d
=24
16e-
16d
16e-
16d
16c
16B-
16A
16G
16F#
16G
16A
16c
8d
8C
=25
8BB-
8d
16E-
16G
16A
16B-
8c
8AA
16D
16F#
16G
16A
=26
16B-
16A
16G
16B-
16A
16G
16F#
16A
8G
8D
8GG
16B-
16c
=27
16d-
16c
16d-
16c
16B-
16A-
16B-
16A-
16G
16F
16G
16F
16E
16G
16A-
16B-
=28
16c
16B-
16A-
16c
16B-
16A-
16G
16B-
8A-
8F
8FF
16F
16G
=29
16A-
16G
16F
16E-
16D
16E-
16F
16G
16A-
16B-
16c
16d
16e-
16d
16e-
16d
=30
16e-
16d
16c
16B-
16A-
16G
16F
16E-
16F
16E-
16D
16C
8BB-
8F
=31
16BB-
16C
16D
16E-
8F
8G
8C
8A-
8D
8A-
=32
16E-
16F
16G
16A-
8B-
8c
8F
8d-
8G
8d-
=33
16c
16B-
16A-
16G
8A-
8c
16f
16e-
16d
16e-
16f
16e-
16d
16c
=34
16B-
16A-
16G
16F
8G
8B-
16e-
16d
16c
16d
16e-
16d
16c
16B-
=35
16A-
16G
16F
16G
16A-
16G
16F
16E-
16D
16C
16BB-
16C
16D
16C
16BB-
16AA-
=36
16GG
16BB-
16C
16D
8E-
8d-
8AA-
8d-
16c
16B-
16A-
16G
=37
16A-
16G
16F
16E-
8D
8c
8GG
8c
16B-
16A-
16G
16F
=38
16G
16F
16E-
16D
16C
16BB-
16AA-
16GG
16FF
16A-
16G
16F
16BB-
16A-
16G
16F
=39
16EE-
16G
16F
16E-
16AA
16G-
16F
16E-
16D
16F
[8c
8c]
16B-
16A-
=40
16G
16F
16E-
16F
8BB-
8d
4e-
8r
*>B
8F
=17
8B-
16A
16G
16F
16E-
16D
16E-
16F
16E-
16D
16C
16BB-
16AA-
16GG
16FF
=18
16GG
16E-
16F
16G
16D
16A-
16G
16F
16G
16A-
16B-
16G
8E-
16D
16C
=19
16BB
16C
16D
16E-
8F
8A-
16d
16c
16B
16A
8G
8F
=20
16C
16D
16E-
16F
16G
16B
16c
16d
16e-
16d
16c
16B-
16A-
16G
16F
16E-
=21
16A-
16G
16F
16E-
16D
16C
16BB
16AA
16F
16E-
16D
16C
16BB
16AA
16GG
16FF
=22
8EE-
8c
8GG
8B
[4c
8c]
16c
16d
=23
16e-
16d
16e-
16d
16c
16B-
16c
16B-
16A
16B-
16A
16B-
16c
16d
16c
16d
=24
16e-
16d
16e-
16d
16c
16B-
16A
16G
16F#
16G
16A
16c
8d
8C
=25
8BB-
8d
16E-
16G
16A
16B-
8c
8AA
16D
16F#
16G
16A
=26
16B-
16A
16G
16B-
16A
16G
16F#
16A
8G
8D
8GG
16B-
16c
=27
16d-
16c
16d-
16c
16B-
16A-
16B-
16A-
16G
16F
16G
16F
16E
16G
16A-
16B-
=28
16c
16B-
16A-
16c
16B-
16A-
16G
16B-
8A-
8F
8FF
16F
16G
=29
16A-
16G
16F
16E-
16D
16E-
16F
16G
16A-
16B-
16c
16d
16e-
16d
16e-
16d
=30
16e-
16d
16c
16B-
16A-
16G
16F
16E-
16F
16E-
16D
16C
8BB-
8F
=31
16BB-
16C
16D
16E-
8F
8G
8C
8A-
8D
8A-
=32
16E-
16F
16G
16A-
8B-
8c
8F
8d-
8G
8d-
=33
16c
16B-
16A-
16G
8A-
8c
16f
16e-
16d
16e-
16f
16e-
16d
16c
=34
16B-
16A-
16G
16F
8G
8B-
16e-
16d
16c
16d
16e-
16d
16c
16B-
=35
16A-
16G
16F
16G
16A-
16G
16F
16E-
16D
16C
16BB-
16C
16D
16C
16BB-
16AA-
=36
16GG
16BB-
16C
16D
8E-
8d-
8AA-
8d-
16c
16B-
16A-
16G
=37
16A-
16G
16F
16E-
8D
8c
8GG
8c
16B-
16A-
16G
16F
=38
16G
16F
16E-
16D
16C
16BB-
16AA-
16GG
16FF
16A-
16G
16F
16BB-
16A-
16G
16F
=39
16EE-
16G
16F
16E-
16AA
16G-
16F
16E-
16D
16F
[8c
8c]
16B-
16A-
=40
16G
16F
16E-
16F
8BB-
8d
4e-
8r
==
*-
